!!!!SEGMENT: pl-wumfc--n68232--013_moniuszko-stanislaw--paria-wyciag-fortepianowy-akt-i-czterej-braminowie.krn
!!!cenid: 18xx:4143
!!!COM: Moniuszko, Stanisław
!!!COM-rismID: pe30008351
!!!CDT: 1819/05/05-1872/06/04
!!!CNT: Polish
!!!GTL: Paria – wyciąg fortepianowy
!!!OTL: Akt I. Czterej Braminowie
!!!PDT:
!!!AGN:
!!!SMS-siglum: PL-Wumfc
!!!SMS-shelfmark: N68232
!!!SMS-shelfwork: 013 G
!!!SMS-variant:
!!!SMS-altvar:
!!!NIFC-rismSourceID: 1001171381
!!!NIFC-rismChildID: 1001171381
!!!NIFC-islandoraID: pl-wumfc:7210
!!!URL-pdf-islandora: https://repozytorium.nifc.pl/islandora/object/pl-wumfc%3A7210/datastream/PDF/view
!!!URL-scan: https://polish.musicsources.pl/pl/lokalizacje/galeria/druki-muzyczne/12634/1 @EN{Scan on Polish Music Sources Website} @PL{Skany w portalu Dziedzictwo Muzyki Polskiej w otwartym dostępie}
!!!ONB-nifc: UWAGA: str. 46-47. Uwaga: proszę w pliku umieszczać obsadę, która występuje tylko w danej części.
!!!AIN: 1 bass 2 piano 1 tenor 1 vox
!!!key:
**kern	**kern	**dynam	**kern	**dynam	**kern	**text	**text	**dynam	**kern	**text	**text
*part5	*part4	*part4	*part3	*	*part2	*part2	*part2	*part2	*part1	*part1	*part1
*staff5	*staff4	*	*staff3	*	*staff2	*staff2	*staff2	*	*staff1	*staff1	*staff1
*I"[Piano.]	*I"[Piano.]	*	*I"[BRAMINI.]	*	*I"[BRAMINI.]	*	*	*	*I"[Voce]	*	*
*I'[pf]	*I'[pf]	*	*I'[Coro B]	*	*I'[Coro T]	*	*	*	*I'[V]	*	*
*ICklav	*ICklav	*	*ICvox	*	*ICvox	*	*	*	*ICvox	*	*
*Ipiano	*Ipiano	*	*Ibass	*	*Itenor	*	*	*	*Ivox	*	*
*clefF4	*clefG2	*	*clefF4	*	*clefGv2	*	*	*	*clefG2	*	*
*k[b-]	*k[b-]	*	*k[b-]	*	*k[b-]	*	*	*	*k[b-enandn]	*	*
*F:	*F:	*	*F:	*	*F:	*	*	*	*F:	*	*
*M3/4	*M3/4	*	*M3/4	*	*M3/4	*	*	*	*M3/4	*	*
=1	=1	=1	=1	=1	=1	=1	=1	=1	=1	=1	=1
*^	*	*	*	*	*	*	*	*	*	*	*
!	!	!	!	!	!	!	!	!	!	!LO:TX:t=P:problem: kasowniki przy kluczu tylko w pierwszym systemie	!	!
!	!	!	!	!	!	!	!	!	!	!LO:TX:a:B:t=(czytając)	!	!
!LO:TX:b:t=V-III.	!	!	!	!	!	!	!	!	!	!LO:TX:a:t=Czterej Braminowie	!	!
!LO:TX:a:t=Fag	!	!LO:TX:a:B:t=Larghetto.	!	!	!	!LO:TX:t=P:problem:partia tenorowa zapisana bez przenośnika oktawowego	!	!	!	!LO:TX:a:B:t=Larghetto.	!	!
2.E-X/ 2.F	(2AA-X\	8r	.	2.ryy	.	2.ryy	.	.	.	4cc\	,,Co	Quel
!	!	!LO:TX:a:t=Al.	!	!	!	!	!	!	!	!	!	!
.	.	8c/L	.	.	.	.	.	.	.	.	.	.
.	.	8Bn/	.	.	.	.	.	.	.	4cc\	dziś	che hai
.	.	8B-X/	.	.	.	.	.	.	.	.	.	.
.	4C\)	8A/	.	.	.	.	.	.	.	8.cc\	po-	di-
.	.	8A-X/J	.	.	.	.	.	.	.	.	.	.
.	.	.	.	.	.	.	.	.	.	16cc\	-sta-	-vi-
*v	*v	*	*	*	*	*	*	*	*	*	*	*
=2	=2	=2	=2	=2	=2	=2	=2	=2	=2	=2	=2
*	*^	*	*	*	*	*	*	*	*	*	*
8rFF	N(>2En</ N(<2G	(2ryy	.	2.ryy	.	2.ryy	.	.	.	4cc\	-no-	-sa-
(8CC/L	.	.	.	.	.	.	.	.	.	.	.	.
8CC#X/	.	.	.	.	.	.	.	.	.	4cc\	-wisz,	-to
8DD/	.	.	.	.	.	.	.	.	.	.	.	.
8EE-X/	4c/N)	8G</L	.	.	.	.	.	.	.	8r	.	.
!	!	!	!	!	!	!	!	!	!	!LO:TX:a:i:B:t=I quattro Bramini.\n(leggendo)	!	!
8EEn/J)	.	8B-</JN)	.	.	.	.	.	.	.	8cc\	do-	com-
=3	=3	=3	=3	=3	=3	=3	=3	=3	=3	=3	=3	=3
2.FF\	2.c/	<N(8B-</L	.	2.ryy	.	2.ryy	.	.	.	4.cc\	-ko-	-pi-
.	.	8A</	.	.	.	.	.	.	.	.	.	.
.	.	8A-X</	.	.	.	.	.	.	.	.	.	.
.	.	8G</	.	.	.	.	.	.	.	8cc\	-naj	-sei al-
.	.	8A-</	.	.	.	.	.	.	.	4cc\	nie-	-Vi-
.	.	8F</J	.	.	.	.	.	.	.	.	.	.
=4	=4	=4	=4	=4	=4	=4	=4	=4	=4	=4	=4	=4
2.EE-X\	2c/	8F#X</L	.	2.ryy	.	2.ryy	.	.	.	4cc\	-zwłocz-	-stan-
.	.	8G</	.	.	.	.	.	.	.	.	.	.
.	.	8A-X</	.	.	.	.	.	.	.	8cc\	-nie	-te.
.	.	8An</	.	.	.	.	.	.	.	8r	.	.
.	4r	8B-</	.	.	.	.	.	.	.	4cc\	Nim	Nè at-
.	.	8Bn</J	.	.	.	.	.	.	.	.	.	.
*	*v	*v	*	*	*	*	*	*	*	*	*	*
!!LO:LB:g=original	!	!	!	!	!	!	!	!	!	!
=5	=5	=5	=5	=5	=5	=5	=5	=5	=5	=5	=5
2.AA-X/ 2.F	8c/L	.	2.ryy	.	2.ryy	.	.	.	4.cc\	noc	-ten-
.	8d/	.	.	.	.	.	.	.	.	.	.
.	8e-X/	.	.	.	.	.	.	.	.	.	.
.	8en/	.	.	.	.	.	.	.	8cc\	pa-	-de
.	8f/	.	.	.	.	.	.	.	4cc\	-no-	re il
.	8f#X/J>N)	.	.	.	.	.	.	.	.	.	.
=6	=6	=6	=6	=6	=6	=6	=6	=6	=6	=6	=6
*	*^	*	*	*	*	*	*	*	*	*	*
*	*	*^	*	*	*	*	*	*	*	*	*	*
(<8GG\L	(2g/	2.c\	4E-X</	.	2.ryy	.	2.ryy	.	.	.	4cc\	-wa-	rez-
8FF#X\	.	.	.	.	.	.	.	.	.	.	.	.	.
!	!LO:TX:b:t=m.d.	!	!	!	!	!	!	!	!	!	!	!	!
8FFn\	.	.	2G</	.	.	.	.	.	.	.	4cc\	-nie	-zo
8EE-X\	.	.	.	.	.	.	.	.	.	.	.	.	.
8DD\	8.g/L	.	.	.	.	.	.	.	.	.	4cc\	nad	del
8CC\J	.	.	.	.	.	.	.	.	.	.	.	.	.
.	16e-X/Jk)	.	.	.	.	.	.	.	.	.	.	.	.
*	*	*v	*v	*	*	*	*	*	*	*	*	*	*
=7	=7	=7	=7	=7	=7	=7	=7	=7	=7	=7	=7	=7
!	!LO:TX:b:t=Cl.	!	!	!	!	!	!	!	!	!	!	!
!	!LO:TX:a:t=Fl	!	!	!	!	!	!	!	!	!	!	!
4BBB-/ 4BB-	2.cc/	(8e-X\L	.	2.ryy	.	2.ryy	.	.	.	4.cc\	świa-	gior-
.	.	8en\	.	.	.	.	.	.	.	.	.	.
4AAA-X/ 4AA-X	.	8f\	.	.	.	.	.	.	.	.	.	.
.	.	8f#X\	.	.	.	.	.	.	.	8cc\	-tem	-no
4GGG/) 4GG	.	8g\	.	.	.	.	.	.	.	4cc\	roz-	spi-
.	.	8g#X\J)	.	.	.	.	.	.	.	.	.	.
=8	=8	=8	=8	=8	=8	=8	=8	=8	=8	=8	=8	=8
*	*^	*^	*	*	*	*	*	*	*	*	*	*
!	!LO:TX:b:t=Cl. e Fag.	!	!	!	!	!	!	!	!	!	!	!	!	!
2.GGG-X\ 2.GG-X	2cc/	2a\	8e-X</L	4.ryy	.	2.ryy	.	2.ryy	.	.	.	4cc\	-pocz-	-ran-
.	.	.	8d</	.	.	.	.	.	.	.	.	.	.	.
.	.	.	8d-X</	.	.	.	.	.	.	.	.	4cc\	-nie	-te
.	.	.	8c</	4.c<\	.	.	.	.	.	.	.	.	.	.
.	4r	4ryy	8Bn</	.	.	.	.	.	.	.	.	4r	.	.
.	.	.	8B-X</J	.	.	.	.	.	.	.	.	.	.	.
*	*	*	*v	*v	*	*	*	*	*	*	*	*	*	*
*	*v	*v	*	*	*	*	*	*	*	*	*	*	*
!!LO:LB:g=original	!	!	!	!	!	!	!	!	!	!	!
=9	=9	=9	=9	=9	=9	=9	=9	=9	=9	=9	=9	=9
*^	*	*	*	*	*	*	*	*	*	*	*	*
!LO:TX:a:t=Cl bass.	!	!	!	!	!	!	!	!	!	!	!	!	!
8F/L	(2.FF\	2.c/	2.A\	.	2.ryy	.	2.ryy	.	.	.	4cc\	Łącz	Sü
8E/	.	.	.	.	.	.	.	.	.	.	.	.	.
8E-X/	.	.	.	.	.	.	.	.	.	.	4cc\	dzie-	pron-
8D/	.	.	.	.	.	.	.	.	.	.	.	.	.
8D-X/	.	.	.	.	.	.	.	.	.	.	8cc\	-ło	-to
8C/J	.	.	.	.	.	.	.	.	.	.	8cc\	z o-	all`of-
*	*	*v	*v	*	*	*	*	*	*	*	*	*	*
=10	=10	=10	=10	=10	=10	=10	=10	=10	=10	=10	=10	=10
!	!	!LO:TX:b:t=Al.	!	!	!	!	!	!	!	!	!	!
2.C/	4FF#X\	(8B-\L 8c	.	2.ryy	.	2.ryy	.	.	.	4cc\	-fia-	-fer-
.	.	8Bn\	.	.	.	.	.	.	.	.	.	.
.	4GG\	8c\	.	.	.	.	.	.	.	4cc\	-rą,	-ta,
.	.	8c#X\	.	.	.	.	.	.	.	.	.	.
.	4CC\)	8d\	.	.	.	.	.	.	.	8r	.	.
.	.	8e\J)	.	.	.	.	.	.	.	8cc\	po-	di-
=11	=11	=11	=11	=11	=11	=11	=11	=11	=11	=11	=11	=11
*	*	*^	*	*	*	*	*	*	*	*	*	*
!	!	!LO:TX:a:t=Fl	!	!	!	!	!	!	!	!	!	!	!
2A/	2.FF\	[2.cc/	8f\L	.	2.ryy	.	2.ryy	.	.	.	4.cc^\	-gar-	-sprez-
.	.	.	8e\	.	.	.	.	.	.	.	.	.	.
.	.	.	8e-X\	.	.	.	.	.	.	.	.	.	.
.	.	.	8d\	.	.	.	.	.	.	.	8cc\	-dzaj	-za il
4F/	.	.	8d-X\	.	.	.	.	.	.	.	4cc\	cier-	sof-
.	.	.	8c\J	.	.	.	.	.	.	.	.	.	.
=12	=12	=12	=12	=12	=12	=12	=12	=12	=12	=12	=12	=12	=12
(8C/L	4FF#X\	2.cc/]	(4.B-\	.	2.ryy	.	2.ryy	.	.	.	4dd\	-pie-	-fri-
8D/	.	.	.	.	.	.	.	.	.	.	.	.	.
8E-X/	2ryy	.	.	.	.	.	.	.	.	.	4cc\	-niem	-re.
8En/	.	.	8c\L	.	.	.	.	.	.	.	.	.	.
8A/	.	.	8d\	.	.	.	.	.	.	.	8r	.	.
8G/J)	.	.	8e\J)	.	.	.	.	.	.	.	8cc\	Niech	Col-
*v	*v	*	*	*	*	*	*	*	*	*	*	*	*
=13	=13	=13	=13	=13	=13	=13	=13	=13	=13	=13	=13	=13
!	!LO:TX:b:i:t=dolce	!	!	!	!	!	!	!	!	!	!	!
2.AA\ 2.F 2.c	(8cc/L	2.f\	pp	2.ryy	.	2.ryy	.	.	.	4cc\	słoń-	-l`ul-
.	8dd/	.	.	.	.	.	.	.	.	.	.	.
.	8ee/	.	.	.	.	.	.	.	.	4cc\	-ca	-ti-
.	8ff/)	.	.	.	.	.	.	.	.	.	.	.
.	(8.ff/	.	.	.	.	.	.	.	.	4cc\	o-	-mo
.	16ee/Jk)	.	.	.	.	.	.	.	.	.	.	.
!!LO:LB:g=original	!	!	!	!	!	!	!	!	!	!	!
=14	=14	=14	=14	=14	=14	=14	=14	=14	=14	=14	=14	=14
2.GG\ 2.B-	(2ee/	(8d\L	.	2.ryy	.	2.ryy	.	.	.	4.cc\	-sta-	rag-
.	.	8e\	.	.	.	.	.	.	.	.	.	.
.	.	8f\	.	.	.	.	.	.	.	.	.	.
.	.	8f#X\)	.	.	.	.	.	.	.	8b-\	-tni	-gio
.	4dd/)	(8.g\	.	.	.	.	.	.	.	4b-\	u-	del
.	.	16fn\Jk)	.	.	.	.	.	.	.	.	.	.
=15	=15	=15	=15	=15	=15	=15	=15	=15	=15	=15	=15	=15
2.C\ 2.G 2.B-	(8dd/L	2e\	.	2.ryy	.	2.ryy	.	.	.	4b-\	-wień-	so-
.	8dd-X/	.	.	.	.	.	.	.	.	.	.	.
.	8b-/	.	.	.	.	.	.	.	.	4g/	-czy	-le
.	8g/	.	.	.	.	.	.	.	.	.	.	.
.	8.e/	4ryy	.	.	.	.	.	.	.	4cc\	je	che
.	16cc/Jk)	.	.	.	.	.	.	.	.	.	.	.
=16	=16	=16	=16	=16	=16	=16	=16	=16	=16	=16	=16	=16
2C\	4f/ 4cc	(8B-</L	.	2.ryy	.	2.ryy	.	.	.	[4cc\	blask	muor,
.	.	8A</	.	.	.	.	.	.	.	.	.	.
.	(8A/L	8F</	.	.	.	.	.	.	.	8cc\]	.	.
.	8B-/	8D</	.	.	.	.	.	.	.	8r	.	.
4BB-\	8.c/)	8C</J)	.	.	.	.	.	.	.	4cc\	A	Del
.	.	8rC<	.	.	.	.	.	.	.	.	.	.
.	16c/Jk	.	.	.	.	.	.	.	.	.	.	.
*	*v	*v	*	*	*	*	*	*	*	*	*	*
=17	=17	=17	=17	=17	=17	=17	=17	=17	=17	=17	=17
2.AA/ 2.F	(8c\L 8cc	<	2.ryy	.	2.ryy	.	.	.	4.ff\	do-	ciel
.	8d\ 8dd	.	.	.	.	.	.	.	.	.	.
.	8f\ 8ff	.	.	.	.	.	.	.	.	.	.
.	8a\ 8aa	.	.	.	.	.	.	.	8cc\	-znasz	scen-
.	8cc\ 8ccc	[ >	.	.	.	.	.	.	4cc\	od	-de-
.	16dd\L 16ddd	.	.	.	.	.	.	.	.	.	.
.	16a\JJ) 16aa	]]	.	.	.	.	.	.	.	.	.
=18	=18	=18	=18	=18	=18	=18	=18	=18	=18	=18	=18
*^	*^	*	*	*	*	*	*	*	*	*	*
2.BB-\	2ryy	(>4a/ 4aa	(<8F</L	.	2.ryy	.	2.ryy	.	.	.	4cc\	bo-	-ran
.	.	.	8G</	.	.	.	.	.	.	.	.	.	.
.	.	8g/L 8gg	8B-</	.	.	.	.	.	.	.	4b-\	-gów	sul
.	.	8f/J) 8ff	8d\J)	.	.	.	.	.	.	.	.	.	.
!LO:TX:A:t=m.s.	!	!	!	!	!	!	!	!	!	!	!	!	!
.	(>8f>\L	4ff/	4ryy	.	.	.	.	.	.	.	4dd\	i	tuo
.	16e>\L	.	.	.	.	.	.	.	.	.	.	.	.
.	16d>\JJ)	.	.	.	.	.	.	.	.	.	.	.	.
*	*	*v	*v	*	*	*	*	*	*	*	*	*	*
!!LO:PB:g=original	!	!	!	!	!	!	!	!	!	!	!
=19	=19	=19	=19	=19	=19	=19	=19	=19	=19	=19	=19	=19
!LO:TX:t=P:problem: 8d i 2C bracketed notes	!	!	!	!LO:TX:a:t=Bass.	!	!LO:TX:a:t=Ten.	!	!	!	!	!	!
(8d>\L	2.C\	8ff/L	.	2.r	.	2.r	.	.	.	4g/	chwa-	ca-
8d-X>\	.	8ee/J	.	.	.	.	.	.	.	.	.	.
8c/	.	2eett/	.	.	.	.	.	.	.	8g/	-ły	-po i
8B-/	.	.	.	.	.	.	.	.	.	8r	.	.
8G/	.	.	.	.	.	.	.	.	.	4cc\	i	fa-
8c/J)	.	.	.	.	.	.	.	.	.	.	.	.
.	.	16qqddTTT/LL	.	.	.	.	.	.	.	.	.	.
.	.	16qqeeTTT/JJ	.	.	.	.	.	.	.	.	.	.
=20	=20	=20	=20	=20	=20	=20	=20	=20	=20	=20	=20	=20
*	*	*^	*	*	*	*	*	*	*	*	*	*
!	!	!LO:TX:a:t=V.I.	!	!	!	!	!	!	!	!	!	!	!
(4.A/	2.FF\	2ff/	(8ff\L	.	4r	.	4r	.	.	.	2a/	łask."	-vor.
.	.	.	8dd\	.	.	.	.	.	.	.	.	.	.
.	.	.	8cc\	.	4r	.	4r	.	.	.	.	.	.
8C/	.	.	8a\	.	.	.	.	.	.	.	.	.	.
!	!	!	!	!	!	!	!	!	!	!LO:DY:a	!	!	!
!	!	!	!	!	!	!LO:DY:a	!	!	!	!	!	!	!
4F/)	.	4ree	8f\	.	4F\	p	4F/	,, Niech	Col-	p	4r	.	.
.	.	.	8e-X\J)	.	.	.	.	.	.	.	.	.	.
=21	=21	=21	=21	=21	=21	=21	=21	=21	=21	=21	=21	=21	=21
4F/ 4B-	4BB-/	(>8d/L	2ryy	.	4BB-/	.	4F/ 4d	słoń-	-l`ul-	.	2.r	.	.
.	.	8f/	.	.	.	.	.	.	.	.	.	.	.
(<4GG\ 4G	2BB-/	8b-/	.	.	4BB-/	.	4G\ 4d	-ca	-ti-	.	.	.	.
.	.	8bn/	.	.	.	.	.	.	.	.	.	.	.
4FF\) 4F	.	8cc/	4a-X\	.	4BB-/	.	4A-X\ 4d	os-	-mo	.	.	.	.
.	.	8dd/J)	.	.	.	.	.	.	.	.	.	.	.
*v	*v	*	*	*	*	*	*	*	*	*	*	*	*
=22	=22	=22	=22	=22	=22	=22	=22	=22	=22	=22	=22	=22
(4EE-X/ 4E-X	(2ee-X/	8g\L	.	4E-X\	.	4.G\ 4.e-X	-ta-	rag-	.	2.r	.	.
.	.	8cc\	.	.	.	.	.	.	.	.	.	.
4DD/ 4D	.	8b-\	.	4D\	.	.	.	.	.	.	.	.
.	.	8g\	.	.	.	8G\ 8e-	-tni	-gio	.	.	.	.
4CC/) 4C	4g/)	8e-X\	.	4C/	.	4G\ 4e-	u-	del	.	.	.	.
.	.	8d\J	.	.	.	.	.	.	.	.	.	.
=23	=23	=23	=23	=23	=23	=23	=23	=23	=23	=23	=23	=23
(<4AA-X\ 4A-X	2.cc/	(>8c\L	.	4A-X\	.	4A-X\ 4c	-wień-	so-	.	2.r	.	.
.	.	8d\	.	.	.	.	.	.	.	.	.	.
4GG/ 4G	.	8en\	.	4G\	.	4A-\ 4c	-czy	-le	.	.	.	.
.	.	8f\	.	.	.	.	.	.	.	.	.	.
4FF/ 4F	.	8g\	.	4F\	.	4A-\ 4c	je	che	.	.	.	.
.	.	8a-X\J)	.	.	.	.	.	.	.	.	.	.
!!LO:LB:g=original	!	!	!	!	!	!	!	!	!	!	!	!
=24	=24	=24	=24	=24	=24	=24	=24	=24	=24	=24	=24	=24
*	*	*	*	*^	*	*	*	*	*	*	*	*
8EE/L) 8E	(2cc/	8g\L	.	[4C/	[4C\	.	[4c\	blask	muor,	.	2.ryy	.	.
(8DD/ 8D	.	8f\J	.	.	.	.	.	.	.	.	.	.	.
8DD-X/ 8D-X	.	4e\	.	8C/]	8C\]	.	8c\]	.	.	.	.	.	.
8CC/ 8C	.	.	.	8r	8ryy	.	8r	.	.	.	.	.	.
8BBBn/ 8BBn	8g/L	8g\	.	4C/	4C\	.	4c\	A	del	.	.	.	.
8BBB-X/J) 8BB-X	8cc/J)	8rd	.	.	.	.	.	.	.	.	.	.	.
*	*v	*v	*	*	*	*	*	*	*	*	*	*	*
*	*	*	*v	*v	*	*	*	*	*	*	*	*
=25	=25	=25	=25	=25	=25	=25	=25	=25	=25	=25	=25
8AAA/L 8AA	2c/ 2f 2cc	<	4.AAn/ 4.F	.	4.c\ 4.f	do-	ciel	.	2.ryy	.	.
(8C/	.	.	.	.	.	.	.	.	.	.	.
8F/	.	.	.	.	.	.	.	.	.	.	.
8A/	.	.	8AA/ 8F	.	8F/ 8c	-znasz	su	.	.	.	.
8c/	4f/	[ > ]]	4AA/ 4F	.	4F/ 4c	od	te	.	.	.	.
16B-/L	.	.	.	.	.	.	.	.	.	.	.
16A/JJ	.	.	.	.	.	.	.	.	.	.	.
=26	=26	=26	=26	=26	=26	=26	=26	=26	=26	=26	=26
*^	*^	*	*	*	*^	*	*	*	*	*	*
*	*^	*	*	*	*	*	*	*	*	*	*	*	*	*
(4A/)	2.GG\	4ryy	(8f/L	2d\	.	4GG/ 4D	.	4F/ 4c	4ryy	bo-	scen-	.	2.ryy	.	.
.	.	.	8g/	.	.	.	.	.	.	.	.	.	.	.	.
8G/L	.	2D/	8b-/	.	.	4GG/ 4D	.	4F/ 4B-	4ryy	-gów	-de-	.	.	.	.
8F/J	.	.	8dd/J	.	.	.	.	.	.	.	.	.	.	.	.
4F/)	.	.	8ff/L	4ryy	.	4GG/ 4G	.	8d/L	4B-\	i	-ran	.	.	.	.
.	.	.	16ee/L	.	.	.	.	8f/J	.	.	.	.	.	.	.
.	.	.	16dd/JJ)	.	.	.	.	.	.	.	.	.	.	.	.
*	*v	*v	*	*	*	*	*	*	*	*	*	*	*	*	*
=27	=27	=27	=27	=27	=27	=27	=27	=27	=27	=27	=27	=27	=27	=27
8C/L	2.C\	(8dd/L	4f\	.	4C\ 4G	.	4f/	4B-\	chwa-	le	.	2.ryy	.	.
8G/	.	8dd-X/J	.	.	.	.	.	.	.	.	.	.	.	.
8B-/	.	4cc/)	4e\	.	4C\ 4G	.	4e/	4B-\	-ły	gra-	.	.	.	.
8c/	.	.	.	.	.	.	.	.	.	.	.	.	.	.
8dn/	.	4f/	4ryy	.	4C\ 4F	.	4d/	4B-\	i	-zie	.	.	.	.
8F/J	.	.	.	.	.	.	.	.	.	.	.	.	.	.
*	*	*v	*v	*	*	*	*	*	*	*	*	*	*	*
!!LO:LB:g=original	!	!	!	!	!	!	!	!	!	!	!	!	!
=28	=28	=28	=28	=28	=28	=28	=28	=28	=28	=28	=28	=28	=28
!	!	!	!	!	!	!	!	!	!	!	!LO:TX:a:t=Akebar.	!	!
(16E/LL	2C\	2g/ 2b- 2cc	.	2C\ 2E	.	2B-\ 2d	2ryy	do-	e i	.	2.r	.	.
16F/	.	.	.	.	.	.	.	.	.	.	.	.	.
16G/	.	.	.	.	.	.	.	.	.	.	.	.	.
16A/JJ	.	.	.	.	.	.	.	.	.	.	.	.	.
4B-/)	.	.	.	.	.	.	.	.	.	.	.	.	.
4E/	4C\	4B-/ 4c 4g	.	4C\ 4E	.	4c/	4B-\	-znasz	fa-	.	.	.	.
*v	*v	*	*	*	*	*v	*v	*	*	*	*	*	*
=29	=29	=29	=29	=29	=29	=29	=29	=29	=29	=29	=29
*	*^	*	*	*	*	*	*	*	*	*	*
!	!	!	!	!	!	!	!	!	!	!LO:TX:a:i:t=deciso	!	!
[2.FF\ [2.C	[>2.f/ [2.a	(<8F</L	.	[2.FF/ [2.F	.	[2.A\ [2.c	łask."	-vor.	.	[2.aa^\	Sta-	Co-
.	.	8G</	.	.	.	.	.	.	.	.	.	.
.	.	8A</	.	.	.	.	.	.	.	.	.	.
.	.	8c\	.	.	.	.	.	.	.	.	.	.
.	.	8f\	.	.	.	.	.	.	.	.	.	.
.	.	8d\J)	.	.	.	.	.	.	.	.	.	.
=30	=30	=30	=30	=30	=30	=30	=30	=30	=30	=30	=30	=30
2.FF\_ 2.C_<	2.f/_ 2.a_	(8c\L	.	4FF/] 4F]	.	4A\] 4c]	.	.	.	4.aa\]	.	.
.	.	8a\	.	.	.	.	.	.	.	.	.	.
.	.	8g\	.	4r	.	4r	.	.	.	.	.	.
.	.	8f\	.	.	.	.	.	.	.	8dd\	-ło	-si
.	.	8d\	.	4r	.	4r	.	.	.	4dd\	się.	sia.
.	.	8c\J)	.	.	.	.	.	.	.	.	.	.
=31	=31	=31	=31	=31	=31	=31	=31	=31	=31	=31	=31	=31
2.FF\] 2.C]	2.f/_ 2.a_	(<8A\L	.	2.r	.	2.r	.	.	.	2.r	.	.
.	.	8f\	.	.	.	.	.	.	.	.	.	.
.	.	8d\	.	.	.	.	.	.	.	.	.	.
.	.	8c\	.	.	.	.	.	.	.	.	.	.
.	.	8A\	.	.	.	.	.	.	.	.	.	.
.	.	8G</J)	.	.	.	.	.	.	.	.	.	.
*	*v	*v	*	*	*	*	*	*	*	*	*	*
=32	=32	=32	=32	=32	=32	=32	=32	=32	=32	=32	=32
(8FF'/L 8F	2f/] 2a]	.	2.r	.	2.r	.	.	.	2.r	.	.
!LO:TX:a:i:t=rallent.	!	!	!	!	!	!	!	!	!	!	!
8DD'/ 8D	.	.	.	.	.	.	.	.	.	.	.
8CC'/ 8C	.	.	.	.	.	.	.	.	.	.	.
8BBB-'/ 8BB-	.	.	.	.	.	.	.	.	.	.	.
8AAA'/ 8AA	4r	.	.	.	.	.	.	.	.	.	.
8GGG#X'/J) 8GG#X	.	.	.	.	.	.	.	.	.	.	.
=||	=||	=||	=||	=||	=||	=||	=||	=||	=||	=||	=||
*-	*-	*-	*-	*-	*-	*-	*-	*-	*-	*-	*-
!!!system-decoration: s1[(s2,s3)]{(s4,s5)}
!!!RDF**kern: N = linked
!!!RDF**kern: > = above
!!!RDF**kern: < = below
!!!ENC: Filip Voros
!!!END: 2022-08-30
!!!ENC: Natalia Wrzos
!!!END: 2022-10-10
!!!YEC: Copyright 2022 Narodowy Instytut Fryderyka Chopina (https://polishscores.org)
!!!YEM: License CC-BY-4.0 (https://creativecommons.org/licenses/by/4.0)
